packages/bezier-icons/icons/instagram.svg

<svg width="24" height="24" viewBox="0 0 24 24" fill="none" xmlns="http://www.w3.org/2000/svg">
<path fill-rule="evenodd" clip-rule="evenodd" d="M7.25 12C7.25 9.37665 9.37665 7.25 12 7.25C14.6234 7.25 16.75 9.37665 16.75 12C16.75 14.6234 14.6234 16.75 12 16.75C9.37665 16.75 7.25 14.6234 7.25 12ZM12 9.25C10.4812 9.25 9.25 10.4812 9.25 12C9.25 13.5188 10.4812 14.75 12 14.75C13.5188 14.75 14.75 13.5188 14.75 12C14.75 10.4812 13.5188 9.25 12 9.25Z" fill="#313234"/>
<path d="M16.625 8.5C17.2463 8.5 17.75 7.99632 17.75 7.375C17.75 6.75368 17.2463 6.25 16.625 6.25C16.0037 6.25 15.5 6.75368 15.5 7.375C15.5 7.99632 16.0037 8.5 16.625 8.5Z" fill="#313234"/>
<path fill-rule="evenodd" clip-rule="evenodd" d="M20.528 6.10476C20.75 6.67676 20.902 7.33076 20.946 8.28876C20.99 9.24876 21 9.55576 21 11.9998C21 14.4448 20.99 14.7508 20.946 15.7108C20.902 16.6688 20.75 17.3238 20.528 17.8958C20.298 18.4878 19.99 18.9898 19.49 19.4898C18.989 19.9898 18.487 20.2978 17.895 20.5278C17.323 20.7498 16.669 20.9028 15.711 20.9468C14.751 20.9898 14.444 20.9998 12 20.9998C9.556 20.9998 9.249 20.9898 8.289 20.9468C7.331 20.9028 6.677 20.7498 6.105 20.5278C5.513 20.2978 5.011 19.9898 4.511 19.4898C4.011 18.9898 3.702 18.4878 3.472 17.8958C3.25 17.3238 3.098 16.6688 3.054 15.7108C3.011 14.7508 3 14.4448 3 11.9998C3 9.55576 3.011 9.24876 3.054 8.28876C3.098 7.33076 3.25 6.67676 3.472 6.10476C3.702 5.51276 4.011 5.01076 4.511 4.51076C5.011 4.00976 5.513 3.70176 6.105 3.47276C6.677 3.24976 7.331 3.09776 8.289 3.05376C9.249 3.00976 9.556 2.99976 12 2.99976C14.444 2.99976 14.751 3.00976 15.711 3.05376C16.669 3.09776 17.323 3.24976 17.895 3.47276C18.487 3.70176 18.989 4.00976 19.49 4.51076C19.99 5.01076 20.298 5.51276 20.528 6.10476ZM18.6556 17.0362C18.7723 16.7354 18.9118 16.2839 18.9497 15.4509C18.9905 14.5506 19 14.2812 19 12.0005C19 9.72074 18.9905 9.45131 18.9497 8.55099C18.9118 7.71803 18.7723 7.2655 18.6556 6.96571C18.501 6.56631 18.316 6.2817 18.0171 5.9838C17.7183 5.68401 17.4337 5.49997 17.0352 5.34438C16.7345 5.22769 16.282 5.08823 15.45 5.05028C14.5496 5.00949 14.2793 5 11.9995 5C9.71979 5 9.44941 5.00949 8.5491 5.05028C7.71708 5.08823 7.26455 5.22769 6.96381 5.34438C6.56536 5.49997 6.28075 5.68401 5.98286 5.9838C5.68401 6.2817 5.49807 6.56631 5.34343 6.96571C5.22674 7.2655 5.08728 7.71803 5.04933 8.55099C5.00854 9.45131 5 9.72074 5 12.0005C5 14.2812 5.00854 14.5506 5.04933 15.4509C5.08728 16.2839 5.22674 16.7354 5.34343 17.0362C5.49807 17.4346 5.68401 17.7193 5.98286 18.0181C6.28075 18.3169 6.56536 18.5019 6.96381 18.6566C7.26455 18.7742 7.71708 18.9127 8.5491 18.9507C9.44941 18.9915 9.71979 19 11.9995 19C14.2802 19 14.5496 18.9915 15.45 18.9507C16.282 18.9127 16.7345 18.7742 17.0352 18.6566C17.4337 18.5019 17.7183 18.3169 18.0171 18.0181C18.316 17.7193 18.501 17.4346 18.6556 17.0362Z" fill="#313234"/>
</svg>

<svg xmlns="http://www.w3.org/2000/svg" width="24" height="24" fill="none" viewBox="0 0 24 24"><path fill="#313234" fill-rule="evenodd" d="M7.25 12a4.75 4.75 0 1 1 9.5 0 4.75 4.75 0 0 1-9.5 0M12 9.25a2.75 2.75 0 1 0 0 5.5 2.75 2.75 0 0 0 0-5.5" clip-rule="evenodd"/><path fill="#313234" d="M16.625 8.5a1.125 1.125 0 1 0 0-2.25 1.125 1.125 0 0 0 0 2.25"/><path fill="#313234" fill-rule="evenodd" d="M20.528 6.105c.222.572.374 1.226.418 2.184.044.96.054 1.267.054 3.71 0 2.446-.01 2.752-.054 3.712-.044.958-.196 1.613-.418 2.185a4.4 4.4 0 0 1-1.038 1.594c-.501.5-1.003.808-1.595 1.038-.572.222-1.226.375-2.184.419-.96.043-1.267.053-3.711.053s-2.751-.01-3.711-.053c-.958-.044-1.612-.197-2.184-.42a4.4 4.4 0 0 1-1.594-1.037c-.5-.5-.809-1.002-1.039-1.594-.222-.572-.374-1.227-.418-2.185C3.011 14.75 3 14.445 3 12s.011-2.751.054-3.711c.044-.958.196-1.612.418-2.184A4.4 4.4 0 0 1 4.511 4.51a4.4 4.4 0 0 1 1.594-1.038c.572-.223 1.226-.375 2.184-.42C9.249 3.01 9.556 3 12 3s2.751.01 3.711.054c.958.044 1.612.196 2.184.419A4.4 4.4 0 0 1 19.49 4.51c.5.5.808 1.002 1.038 1.594m-1.872 10.931c.116-.3.256-.752.294-1.585.04-.9.05-1.17.05-3.45s-.01-2.55-.05-3.45c-.038-.833-.178-1.285-.294-1.585-.155-.4-.34-.684-.639-.982a2.64 2.64 0 0 0-.982-.64c-.3-.116-.753-.256-1.585-.294C14.55 5.01 14.28 5 12 5s-2.55.01-3.45.05c-.833.038-1.285.178-1.586.294-.399.156-.683.34-.981.64a2.6 2.6 0 0 0-.64.982c-.116.3-.256.752-.294 1.585-.04.9-.049 1.17-.049 3.45s.009 2.55.05 3.45c.037.833.177 1.284.293 1.585.155.399.341.683.64.982.298.299.582.484.98.639.302.117.754.256 1.586.294.9.04 1.17.049 3.45.049s2.55-.009 3.451-.05c.832-.037 1.285-.176 1.585-.293.399-.155.683-.34.982-.639s.484-.583.639-.982" clip-rule="evenodd"/></svg>
